X: 1
T: Reissumies ja kissa
T: the Vagabond and the cat
C: Reino Helismaa
R: shottish
M: 4/4
L: 1/8
K: Am
e | "Am"a>^g a>f e>^d e>=d | c>B c>A "Dm"B3 A | "E7"^G>G G>A B2 c2 "Am"A6 z :|
A | "G7"G>G G>A B>G  A>B | "C"c>B c>d e3 e | "B7"^d>d d>e f>B ^c>^d | "E7"e>e d>c B3 "d.C."z |]
